X:549
T: NENNE NICHT DAS SCHICKSAL GRAUSAM
N: F1070
O: Europa, Mitteleuropa, Deutschland
R: Trost - Lied
M: 4/4
L: 1/16
K: G
G3B | d4D4D4D4 | E4D4z4
D3G | G4F2A2A4G2B2 | A8z8
d8d8 | d6efg4d4 | d2c2B4z8
e8e8 | e6f^ga4e4 | d4c4z8
e8f8 | g12
e3G | G8B2A2G2A2 | G8z4

